hosted/assets/icon/widgets/dark-mode/numeric-input.svg

<svg width="50" height="50" viewBox="0 0 50 50" fill="none" xmlns="http://www.w3.org/2000/svg">
<path d="M2 14C0.906937 14 0 14.9069 0 16V34C0 35.0931 0.906937 36 2 36H48C49.0931 36 50 35.0931 50 34V16C50 14.9069 49.0931 14 48 14H2ZM2 16H48V34H2V16Z" fill="white"/>
<path d="M24 19H25V31H24V19Z" fill="white"/>
<path d="M9.72266 29H8.07617V22.7949C7.47461 23.3574 6.76562 23.7734 5.94922 24.043V22.5488C6.37891 22.4082 6.8457 22.1426 7.34961 21.752C7.85352 21.3574 8.19922 20.8984 8.38672 20.375H9.72266V29Z" fill="white"/>
<path d="M12.5 27.3535H14.1465V28.5312C14.1465 29.0078 14.1055 29.3828 14.0234 29.6562C13.9414 29.9336 13.7852 30.1816 13.5547 30.4004C13.3281 30.6191 13.0391 30.791 12.6875 30.916L12.3652 30.2363C12.6973 30.127 12.9336 29.9766 13.0742 29.7852C13.2148 29.5938 13.2891 29.332 13.2969 29H12.5V27.3535Z" fill="white"/>
<path d="M21.0898 27.4707V29H15.3184C15.3809 28.4219 15.5684 27.875 15.8809 27.3594C16.1934 26.8398 16.8105 26.1523 17.7324 25.2969C18.4746 24.6055 18.9297 24.1367 19.0977 23.8906C19.3242 23.5508 19.4375 23.2148 19.4375 22.8828C19.4375 22.5156 19.3379 22.2344 19.1387 22.0391C18.9434 21.8398 18.6719 21.7402 18.3242 21.7402C17.9805 21.7402 17.707 21.8438 17.5039 22.0508C17.3008 22.2578 17.1836 22.6016 17.1523 23.082L15.5117 22.918C15.6094 22.0117 15.916 21.3613 16.4316 20.9668C16.9473 20.5723 17.5918 20.375 18.3652 20.375C19.2129 20.375 19.8789 20.6035 20.3633 21.0605C20.8477 21.5176 21.0898 22.0859 21.0898 22.7656C21.0898 23.1523 21.0195 23.5215 20.8789 23.873C20.7422 24.2207 20.5234 24.5859 20.2227 24.9688C20.0234 25.2227 19.6641 25.5879 19.1445 26.0645C18.625 26.541 18.2949 26.8574 18.1543 27.0137C18.0176 27.1699 17.9062 27.3223 17.8203 27.4707H21.0898Z" fill="white"/>
<path d="M47.653 37.1901L34.3332 25.2975C34.2043 25.1824 34 25.2739 34 25.4467V43.0592C34 43.2311 34.2024 43.3229 34.3317 43.2097L37.8339 40.1453C37.9228 40.0675 38.0596 40.0834 38.1283 40.1796L40.3949 43.3529C40.4546 43.4364 40.5678 43.4612 40.6569 43.4103L43.8264 41.5992C43.9223 41.5444 43.9556 41.4222 43.9008 41.3263L42.1557 38.2725C42.0831 38.1455 42.167 37.9861 42.3127 37.9739L47.5364 37.5386C47.7114 37.524 47.784 37.3071 47.653 37.1901Z" fill="#C89000"/>
<path fill-rule="evenodd" clip-rule="evenodd" d="M33.1499 25.4467C33.1499 24.5396 34.2226 24.0593 34.8992 24.6635L48.219 36.5561C48.9068 37.1702 48.5257 38.3091 47.6069 38.3857L43.3996 38.7363L44.6387 40.9047C44.9264 41.4081 44.7515 42.0495 44.248 42.3373L41.0785 44.1484C40.6107 44.4157 40.0164 44.2855 39.7032 43.847L37.8536 41.2575L34.8913 43.8495C34.2124 44.4435 33.1499 43.9614 33.1499 43.0593V25.4467ZM34.8499 26.8985V41.6268L37.274 39.5057C37.7412 39.0969 38.4591 39.1805 38.8199 39.6856L40.7451 42.3809L42.8402 41.1837L41.4176 38.6942L42.1556 38.2725L41.4176 38.6942C41.0366 38.0275 41.4768 37.1907 42.242 37.1269L42.3126 37.974L42.2421 37.1269L45.9589 36.8172L34.8499 26.8985ZM40.2351 42.6723C40.2354 42.6722 40.2358 42.672 40.2361 42.6718L40.2351 42.6723Z" fill="white"/>
</svg>

<svg width="50" height="50" fill="none" xmlns="http://www.w3.org/2000/svg"><path d="M2 14c-1.093 0-2 .907-2 2v18c0 1.093.907 2 2 2h46c1.093 0 2-.907 2-2V16c0-1.093-.907-2-2-2H2zm0 2h46v18H2V16z" fill="#fff"/><path d="M24 19h1v12h-1V19zM9.723 29H8.076v-6.205a5.677 5.677 0 01-2.127 1.248v-1.494c.43-.14.897-.406 1.4-.797.505-.395.85-.854 1.038-1.377h1.336V29zm2.777-1.646h1.646v1.177c0 .477-.04.852-.123 1.125a1.672 1.672 0 01-.468.744c-.227.22-.516.391-.867.516l-.323-.68c.332-.109.569-.26.71-.45.14-.192.214-.454.222-.786H12.5v-1.646zm8.59.116V29h-5.772c.063-.578.25-1.125.563-1.64.312-.52.93-1.208 1.851-2.063.743-.692 1.198-1.16 1.366-1.406.226-.34.34-.676.34-1.008 0-.367-.1-.649-.3-.844-.195-.2-.466-.299-.814-.299-.344 0-.617.104-.82.31-.203.208-.32.552-.352 1.032l-1.64-.164c.097-.906.404-1.557.92-1.951.515-.395 1.16-.592 1.933-.592.848 0 1.514.229 1.998.686.485.457.727 1.025.727 1.705 0 .386-.07.756-.211 1.107a4.438 4.438 0 01-.656 1.096c-.2.254-.559.619-1.078 1.095-.52.477-.85.793-.99.95a2.933 2.933 0 00-.335.457h3.27z" fill="#fff"/><path d="M47.653 37.19l-13.32-11.892a.2.2 0 00-.333.149v17.612a.2.2 0 00.332.15l3.502-3.064a.2.2 0 01.294.035l2.267 3.173a.2.2 0 00.262.057l3.17-1.81a.2.2 0 00.074-.274l-1.745-3.053a.2.2 0 01.157-.3l5.223-.434a.2.2 0 00.117-.349z" fill="#C89000"/><path fill-rule="evenodd" clip-rule="evenodd" d="M33.15 25.447c0-.907 1.073-1.388 1.75-.784l13.319 11.893c.688.614.307 1.753-.612 1.83l-4.207.35 1.239 2.169a1.05 1.05 0 01-.391 1.432l-3.17 1.811a1.05 1.05 0 01-1.375-.301l-1.85-2.59-2.962 2.593c-.679.593-1.741.111-1.741-.79V25.446zm1.7 1.451v14.729l2.424-2.121a1.05 1.05 0 011.546.18l1.925 2.695 2.095-1.197-1.422-2.49.738-.422-.738.422a1.05 1.05 0 01.824-1.567l.07.847-.07-.847 3.717-.31-11.11-9.919zm5.385 15.774h.001z" fill="#fff"/></svg>
